symbols/web/tablet_android/materialsymbolsoutlined/tablet_android_wght300grad200_20px.svg

<svg xmlns="http://www.w3.org/2000/svg" height="20" width="20"><path d="M8.271 16.688h3.458v-.855H8.271Zm-3.896 2.77q-.896 0-1.51-.614-.615-.615-.615-1.511V2.667q0-.896.615-1.511.614-.614 1.51-.614h11.25q.896 0 1.51.614.615.615.615 1.511v14.666q0 .896-.615 1.511-.614.614-1.51.614Zm-.25-6.396h11.75V5.167H4.125Zm0 1.876v2.395q0 .105.073.177.073.073.177.073h11.25q.104 0 .177-.073.073-.072.073-.177v-2.395Zm0-11.646h11.75v-.625q0-.105-.073-.177-.073-.073-.177-.073H4.375q-.104 0-.177.073-.073.072-.073.177Zm0-.875v.875-.875Zm0 15.166v-2.645 2.645Z"/></svg>

<svg xmlns="http://www.w3.org/2000/svg" height="20" width="20"><path d="M8.271 16.688H11.729V15.833H8.271ZM4.375 19.458Q3.479 19.458 2.865 18.844Q2.25 18.229 2.25 17.333V2.667Q2.25 1.771 2.865 1.156Q3.479 0.542 4.375 0.542H15.625Q16.521 0.542 17.135 1.156Q17.75 1.771 17.75 2.667V17.333Q17.75 18.229 17.135 18.844Q16.521 19.458 15.625 19.458ZM4.125 13.062H15.875V5.167H4.125ZM4.125 14.938V17.333Q4.125 17.438 4.198 17.51Q4.271 17.583 4.375 17.583H15.625Q15.729 17.583 15.802 17.51Q15.875 17.438 15.875 17.333V14.938ZM4.125 3.292H15.875V2.667Q15.875 2.562 15.802 2.49Q15.729 2.417 15.625 2.417H4.375Q4.271 2.417 4.198 2.49Q4.125 2.562 4.125 2.667ZM4.125 2.417Q4.125 2.417 4.125 2.49Q4.125 2.562 4.125 2.667V3.292V2.667Q4.125 2.562 4.125 2.49Q4.125 2.417 4.125 2.417ZM4.125 17.583Q4.125 17.583 4.125 17.51Q4.125 17.438 4.125 17.333V14.938V17.333Q4.125 17.438 4.125 17.51Q4.125 17.583 4.125 17.583Z"/></svg>
